X:14030
T:Red Box, The
T:Twins, The
C:Arty McGlynn
R:reel
D:Altan: The Red Crow
Z:id:hn-reel-728
M:C|
K:Dmix
af{a}ge {a}fd~d2|cA{c}BG ADDE|{A}EDEG ~A3B|cA (3Bcd ef~g2|
azge {a}fd~d2|cA{c}BG ADDE|{A}EDEG ~A3B|cAGE {A}EDD2:|
|:c3e {a}ge^ce|d^cdf {c'}afde|fgeg {a}fedf|~e3f e^cAB|
c3e {a}ge^ce|d^cdf {c'}afde|fgeg {a}fedB|cAGE {A}EDD2:|
